packages/other/assets/technologies/tableau.svg

<svg xmlns="http://www.w3.org/2000/svg" viewBox="0 0 39 39">
  <title>Tableau</title>
  <g fill="none" fill-rule="evenodd">
    <circle cx="19.5" cy="19.5" r="19.5" fill="#05192D"/>
    <path fill="#FFF" d="M20.029467,26.3556634 L20.029467,28.7209613 L22.1189662,28.7209613 L22.1189662,29.6342816 L20.029467,29.6342816 L20.029467,32 L19.0340724,32 L19.0340724,29.6342816 L16.9449879,29.6342816 L16.9449879,28.7209613 L19.0340724,28.7209613 L19.0340724,26.3556634 L20.029467,26.3556634 Z M13.6343882,21.566114 L13.6343882,24.9574255 L16.7143051,24.9574255 L16.7143051,25.9914286 L13.6343882,25.9914286 L13.6343882,29.3835811 L12.468947,29.3835811 L12.468947,25.9914286 L9.38985958,25.9914286 L9.38985958,24.9574255 L12.468947,24.9574255 L12.468947,21.566114 L13.6343882,21.566114 Z M26.5551498,21.566114 L26.5551498,24.9574255 L29.6342373,24.9574255 L29.6342373,25.9914286 L26.5551498,25.9914286 L26.5551498,29.3835811 L25.3884644,29.3835811 L25.3884644,25.9914286 L22.3093769,25.9914286 L22.3093769,24.9574255 L25.3884644,24.9574255 L25.3884644,21.566114 L26.5551498,21.566114 Z M20.1876518,14.9846989 L20.1876518,18.77296 L23.6246665,18.77296 L23.6246665,20.1189722 L20.1876518,20.1189722 L20.1876518,23.9063922 L18.8364036,23.9063922 L18.8364036,20.1189722 L15.3989741,20.1189722 L15.3989741,18.77296 L18.8364036,18.77296 L18.8364036,14.9846989 L20.1876518,14.9846989 Z M29.9109155,16.6244706 L29.9109155,18.989348 L32,18.989348 L32,19.9026683 L29.9109155,19.9026683 L29.9109155,22.2679662 L28.9155209,22.2679662 L28.9155209,19.9026683 L26.8260216,19.9026683 L26.8260216,18.989348 L28.9155209,18.989348 L28.9155209,16.6244706 L29.9109155,16.6244706 Z M9.8036949,16.8048219 L9.8036949,19.0801333 L11.8782632,19.0801333 L11.8782632,19.7819435 L9.8036949,19.7945584 L9.8036949,22.0875307 L9.07456833,22.0875307 L9.07456833,19.7991839 L7,19.8117988 L7,19.0801333 L9.07456833,19.0801333 L9.07456833,16.8048219 L9.8036949,16.8048219 Z M26.5551498,9.41790209 L26.5551498,12.825613 L29.6342373,12.825613 L29.6342373,13.8587751 L26.5551498,13.8587751 L26.5551498,17.2349487 L25.3884644,17.2349487 L25.3884644,13.8587751 L22.3093769,13.8587751 L22.3093769,12.825613 L25.3884644,12.825613 L25.3884644,9.41790209 L26.5551498,9.41790209 Z M13.5983052,9.41769184 L13.5983052,12.8249823 L16.7143051,12.8249823 L16.7143051,13.828289 L13.5983052,13.828289 L13.5983052,17.2347385 L12.5058596,17.2347385 L12.5058596,13.828289 L9.38985958,13.828289 L9.38985958,12.8249823 L12.5058596,12.8249823 L12.5058596,9.41769184 L13.5983052,9.41769184 Z M19.9032593,7 L19.9032593,9.32072514 L21.9703621,9.32072514 L21.9703621,10.0229558 L19.9032593,10.0229558 L19.9032593,12.3436809 L19.1600313,12.3436809 L19.1600313,10.0229558 L17.0933431,10.0229558 L17.0933431,9.32072514 L19.1600313,9.32072514 L19.1600313,7 L19.9032593,7 Z"/>
  </g>
</svg>

<svg xmlns="http://www.w3.org/2000/svg" xmlns:xlink="http://www.w3.org/1999/xlink" width="39" height="39"><title>Tableau</title><defs><linearGradient id="b" x1="50%" x2="50%" y1="0%" y2="97.043%"><stop offset="0%" stop-color="#E689D5"/><stop offset="100%" stop-color="#B4479F"/></linearGradient><circle id="a" cx="19.5" cy="19.5" r="19.5"/></defs><g fill="none" fill-rule="evenodd"><use fill="url(#b)" xlink:href="#a"/><path fill="#FFF" d="M20.03 26.356v2.365h2.089v.913h-2.09V32h-.995v-2.366h-2.089v-.913h2.09v-2.365h.994zm-6.396-4.79v3.391h3.08v1.034h-3.08v3.393H12.47V25.99h-3.08v-1.034h3.08v-3.39h1.165zm12.921 0v3.391h3.08v1.034h-3.08v3.393h-1.167V25.99H22.31v-1.034h3.08v-3.39h1.166zm-6.367-6.581v3.788h3.437v1.346h-3.437v3.787h-1.352V20.12H15.4v-1.346h3.437v-3.788h1.352zm9.723 1.64v2.364H32v.914h-2.09v2.365h-.994v-2.365h-2.09v-.914h2.09v-2.365h.995zm-20.107.18v2.275h2.074v.702l-2.074.013v2.293h-.73v-2.289L7 19.812v-.732h2.075v-2.275h.729zm16.751-7.387v3.408h3.08v1.033h-3.08v3.376h-1.167v-3.376H22.31v-1.033h3.08V9.418h1.166zm-12.957 0v3.407h3.116v1.003h-3.116v3.407h-1.092v-3.407H9.39v-1.003h3.116V9.418h1.092zM19.903 7v2.32h2.067v.703h-2.067v2.32h-.743v-2.32h-2.067v-.702h2.067V7h.743z"/></g></svg>
